postalsavingsbankofchina.svg

<?xml version="1.0" encoding="UTF-8"?>
<svg viewBox="0 0 9 8" version="1.1" xmlns="http://www.w3.org/2000/svg" xmlns:xlink="http://www.w3.org/1999/xlink">
    <title>Postal Savings Bank of China</title>
    <g id="Page-1" stroke="none" stroke-width="1" fill="none" fill-rule="evenodd">
        <path d="M8.14915356,0.526516529 L7.97896299,1.23923029 L5.0853321,1.26048781 L4.82998104,2.30301915 L3.06404197,2.32427666 L2.98957545,2.65409425 L5.17036217,2.66478821 L5.40445571,1.60099935 L7.91506002,1.59030539 L7.74486945,2.30301915 L5.67050074,2.32427666 L5.42584365,3.37750197 L2.83020926,3.39875949 L2.73448522,3.72857707 L4.51098784,3.73927104 L4.09614018,5.53716159 L2.34089508,5.56911308 L2.33020111,5.5903706 L2.31950714,5.65414315 L2.29824963,5.72860968 L2.28755566,5.78181868 L2.28755566,5.88823669 L2.50026127,5.88823669 L2.64919431,5.89893066 L3.81927077,5.89893066 L4.12783083,5.88823669 L4.25550636,5.88823669 L4.35123041,5.87754273 L4.43626048,5.87754273 L4.92557467,3.72857707 L7.43617897,3.72857707 L7.25529444,4.46267876 L5.20218324,4.4519848 L4.71286906,6.611514 L2.10654071,6.62220797 L2.03207419,6.95202555 L5.0532502,6.95202555 L5.53200083,4.79249635 L7.19152188,4.79249635 L7.03202528,5.52659804 L5.79804585,5.54785556 L5.31929522,7.68612724 L1.46829348,7.66486972 L1.93635014,5.54785556 L0.149153559,5.53716159 L0.542874114,3.73940145 L2.31950714,3.72870749 L2.80882133,1.55848432 L4.55350287,1.57974184 L4.81941749,0.526516529 L8.14915356,0.526516529 Z M2.15974972,4.46267876 L0.798094759,4.47337273 L0.723628235,4.81375387 L2.08528319,4.81375387 L2.15974972,4.46267876 Z M2.69197018,4.4519848 L2.63863076,4.4519848 L2.60667928,4.46267876 L2.58542176,4.48393628 L2.56416424,4.51588777 L2.55347027,4.57966033 L2.5427763,4.65412685 L2.53208234,4.72859338 L2.51082482,4.78180238 L2.51108565,4.8030599 L3.86217705,4.81375387 L3.94733754,4.46267876 L2.69197018,4.4519848 Z" id="Postal-Savings-Bank-of-China" fill="#007848"></path>
    </g>
</svg>

<svg viewBox="0 0 9 8" xmlns="http://www.w3.org/2000/svg"><path d="m8.15.527-.171.712-2.894.021-.255 1.043-1.766.021-.074.33 2.18.01.234-1.063 2.511-.01-.17.712-2.074.021-.245 1.054-2.596.02-.096.33 1.777.011-.415 1.798-1.755.032-.01.021-.011.064-.022.075-.01.053v.106H2.5l.15.01h1.17l.308-.01h.128l.095-.01h.085l.49-2.15h2.51l-.18.735-2.054-.011-.49 2.16-2.605.01-.075.33h3.021l.479-2.16h1.66l-.16.735-1.234.02-.479 2.14-3.85-.022.467-2.117-1.787-.01.394-1.799 1.777-.01.489-2.17 1.745.02.265-1.052h3.33ZM2.16 4.463l-1.362.01-.074.34h1.361l.075-.35Zm.532-.011h-.053l-.032.01-.022.022-.02.032-.012.064-.01.074-.01.075-.022.053v.021l1.351.01.085-.35-1.255-.011Z" fill="#007848" fill-rule="evenodd"/></svg>
